X:19
T:The Ships Are Sailing
C:Trad.
D:"Cooley", track 14
M:4/4
R:reel
K:G
Beed B^cdB|AD (3FED AD (3FED|~E3 F GFGA|Beef gfed|
Beed B^cdB|AD (3FED AD (3FED|E_EEF GFGA|Beed e2|
Beed B^cdB|AD (3FED AD (3FED|~E3 F GFGA|Beef gfed|
Beed B^cdB|AD (3FED AD (3FED|E_EEF GFGA|Beed e3f|
g2fg bgeg|~f2fg afdf|gfga bgeg|fede e3f|
gfga bgeg|fefg afdf|~g2 bg ~f2 af|e_eef g2|
g~e3 bege|fefg afdf|~g3a bgeg|~f3g e2 ef|
g~e3 bege|f~d3 adfd|~g2 bg ~f2 af|e_eef gfed|
